flags/uy.svg

<svg viewBox="-5 -5 27 18" xmlns="http://www.w3.org/2000/svg" xmlns:xlink="http://www.w3.org/1999/xlink"><path d="m-5-5h27v18h-27z" fill="#fff"/><g fill="#0038a8"><path d="m5-3h17v2h-17z"/><path d="m5 1h17v2h-17z"/><path d="m-5 5h27v2h-27z"/><path d="m-5 9h27v2h-27z"/></g><g fill="#fcd116" stroke="#000" stroke-miterlimit="20" stroke-width=".6" transform="scale(.11)"><g id="a"><g id="b"><g id="c"><g transform="matrix(.92387953 .38268343 -.38268343 .92387953 0 0)"><path d="m1.5 9 4.5 3c-8 13 1 15-6 21 3-7-3-5-3-17" stroke-linecap="square"/><path d="m0 11c-2 13 4.5 17 0 22" fill="none"/></g><path d="m0 0h6l-6 33-6-33h6v33"/></g><use transform="matrix(.70710678 .70710678 -.70710678 .70710678 0 0)" xlink:href="#c"/></g><use transform="rotate(90)" xlink:href="#b"/></g><use transform="scale(-1)" xlink:href="#a"/><circle r="11"/></g><g transform="scale(.011)"><g id="d"><path d="m81-44c-7 8-11-6-36-6s-29 15-33 12 21-21 29-22 31 7 40 16m-29 9c7 6 1 19-6 19s-20-12-14-20"/><path d="m19-26c1-12 11-14 27-14s23 12 29 15c-7 0-13-10-29-10s-16 0-27 10m3 2c4-6 9 6 20 6s17-3 24-8-10 12-21 12-26-6-23-10"/><path d="m56-17c13-7 5-17 0-19 2 2 10 12 0 19m-56 60c6 0 8-2 16-2s27 11 38 7c-23 9-14 3-54 3h-5m63 6c-4-7-3-5-11-16 8 6 10 9 11 16m-58 10c25 0 21-5 54-19-24 3-29 11-54 11h-5m5-29c7 0 9-5 17-5s19 3 24 7c1 1-3-8-11-9s-5-14-14-16c0 4 3 3 4 9 0 5-9 5-11 0 2 8-4 8-9 8"/></g><use transform="scale(-1 1)" xlink:href="#d"/><path d="m0 76c-5 0-18 3 0 3s5-3 0-3"/></g></svg>

<svg xmlns="http://www.w3.org/2000/svg" xmlns:xlink="http://www.w3.org/1999/xlink" viewBox="-5 -5 27 18">
<title>Flag of Uruguay</title>
<rect x="-5" y="-5" width="27" height="18" fill="#fff"/>
<g fill="#0038a8">
<rect x="5" y="-3" width="17" height="2"/>
<rect x="5" y="1" width="17" height="2"/>
<rect x="-5" y="5" width="27" height="2"/>
<rect x="-5" y="9" width="27" height="2"/>
</g>
<g transform="scale(0.11)" fill="#fcd116" stroke="#000" stroke-width="0.6" stroke-miterlimit="20">
<g id="u">
<g id="t">
<g id="s">
<g transform="rotate(22.5)">
<path d="M 1.5,9 6,12 C -2,25 7,27 0,33 3,26 -3,28 -3,16" stroke-linecap="square"/>
<path d="M 0,11 C -2,24 4.5,28 0,33" fill="none"/>
</g>
<path d="M 0,0 h 6 l -6,33 l -6,-33 h 6 v 33"/>
</g>
<use xlink:href="#s" transform="rotate(45)"/>
</g>
<use xlink:href="#t" transform="rotate(90)"/>
</g>
<use xlink:href="#u" transform="rotate(180)"/>
<circle r="11"/>
</g>
<g transform="scale(0.011)">
<g id="right">
<path d="M 81,-44 c -7,8 -11,-6 -36,-6 -25,0 -29,15 -33,12 -4,-3 21,-21 29,-22 8,-1 31,7 40,16 M 52,-35 c 7,6 1,19 -6,19 -7,0 -20,-12 -14,-20"/>
<path d=" M 19,-26 c 1,-12 11,-14 27,-14 16,0 23,12 29,15 -7,0 -13,-10 -29,-10 -16,0 -16,0 -27,10 M 22,-23 c 4,-6 9,6 20,6 11,0 17,-3 24,-8 7,-5 -10,12 -21,12 -11,0 -26,-6 -23,-10"/>
<path d="M 56,-17 c 13,-7 5,-17 0,-19 2,2 10,12 0,19 M 0,43 c 6,0 8,-2 16,-2 8,0 27,11 38,7 -23,9 -14,3 -54,3 h -5 M 58,57 c -4,-7 -3,-5 -11,-16 8,6 10,9 11,16 M 0,67 C 25,67 21,62 54,48 30,51 25,59 0,59 h -5 M 0,30 c 7,0 9,-5 17,-5 8,0 19,3 24,7 1,1 -3,-8 -11,-9 C 22,22 25,9 16,7 c 0,4 3,3 4,9 0,5 -9,5 -11,0 2,8 -4,8 -9,8"/>
</g>
<use xlink:href="#right" transform="scale(-1,1)"/>
<path d="M 0,76 c -5,0 -18,3 0,3 18,0 5,-3 0,-3"/>
</g>
</svg>
